X:1
T:Rise, my soul, adore thy Maker
T:Notes: Thomas Clark’s The Congregational Harmonist, or Clerk’s Companion was published in 32 numbered parts (each consisting of 18 pages), grouped into four books (eight parts per book). The pages are consecutively paginated throughout the work as a whole. This setting appears in part 30, which was included in the 'Weekly List of New Publications' on p192 of The Musical World, No. 64, Vol 5, of 2 June 1837. The order of parts in the source is Alto - Tenor - Air - Bass, with the Alto and Tenor parts given in the treble clef an octave above sounding pitch. Only the first verse of the text is given in the source: subsequent verses have here been added editorially. This setting is attributed ‘T. Clark’ in The Congregational Harmonist, where it is marked with a crossed circle, a symbol used in that book to indicate ‘originals’ (i.e. tunes not previously published). This is one of a pair of settings, of a morning and an evening hymn, both by John Cennick and both in the same metre, on p529 of The Congregational Harmonist: the evening hymn is ‘Ere I sleep, for every favour’, set by Thomas Jarman. 
T:Rise, my soul, adore thy Maker - Morning Song (Thomas Clark)
T:Thou this night wast my protector; With me stay All the day, Ever my director. Holy, holy, holy giver Of all good Life and food, Reign ador’d for ever. Glory, honour, thanks and blessing, One in Three, Give we thee, Never, never ceasing.
C:Thomas Clark
Z:Tune 704 from p529 of
Z:The Congregational
Z:Harmonist, Book 4, No. 30
Z:London: [1837]
%%score [ 1 2 3 4 ]
L:1/8
M:3/4
K:F
V:1 treble nm="Soprano" snm="S."
V:2 treble nm="Alto" snm="A."
V:3 treble-8 transpose=-12 nm="Tenor" snm="T."
V:4 bass nm="Bass" snm="B."
V:1
 (F2 A2) c2 | f4 F2 | (d2 c2) B2 | (A3 G) F2 | (G2 c2) B2 | (B2 A4) | (c2 f2) _e2 | (_e2 d4) | %8
w: O _ my|Je- sus,|God _ al-|migh- * ty,|Pray _ for|me, _|Till _ I|see _|
w: Rise, _ my|soul, a-|dore _ thy|Ma- * ker;|An- * gels|praise, _|Join _ thy|lays, _|
w: Fa- * ther,|Lord of|ev- * ’ry|spi- * rit,|In _ thy|light, _|Lead _ me|right, _|
 (d2 g2) f2 | (e2 d2) c2 | (c4 =B2) | c6 | (F2 B2) A2 | (G2 c2) B2 | (A4 G2) | F6 |] %16
w: Thee _ in|Sa- * lem’s|ci- *|ty,|thee _ in|Sa- * lem’s|ci- *|ty.|
w: With _ them|be _ par-|ta- *|ker,|with _ them|be _ par-|ta- *|ker.|
w: Through _ my|Sa- * viour’s|me- *|rit,|through _ my|Sa- * viour’s|me- *|rit.|
V:2
 F4 G2 | A4 F2 | F4 E2 | F4 C2 | E4 G2 | (G2 F4) | (F2 C2) F2 | F6 | (G2 D2) G2 | (G2 F2) E2 | %10
w: O my|Je- sus,|God al-|migh- ty,|Pray for|me, _|Till _ I|see|Thee _ in|Sa- * lem’s|
w: Rise, my|soul, a-|dore thy|Ma- ker;|An- gels|praise, _|Join _ thy|lays,|With _ them|be _ par-|
w: Fa- ther,|Lord of|ev- ’ry|spi- rit,|In thy|light, _|Lead _ me|right,|Through _ my|Sa- * viour’s|
 (A4 G2) | G6 | (F2 E2) F2 | (E2 F2) G2 | (F4 E2) | F6 |] %16
w: ci- *|ty,|thee _ in|Sa- * lem’s|ci- *|ty.|
w: ta- *|ker,|with _ them|be _ par-|ta- *|ker.|
w: me- *|rit,|through _ my|Sa- * viour’s|me- *|rit.|
V:3
 (A2 c2) c2 | F4 c2 | (B2 A2) (Gc) | (c3 B) A2 | (c2 G2) c2 | c6 | A4 c2 | (c2 B4) | =B4 d2 | %9
w: O _ my|Je- sus,|God _ al- *|migh- * ty,|Pray _ for|me,|Till I|see _|Thee in|
w: Rise, _ my|soul, a-|dore _ thy _|Ma- * ker;|An- * gels|praise,|Join thy|lays, _|With them|
w: Fa- * ther,|Lord of|ev- * ’ry _|spi- * rit,|In _ thy|light,|Lead me|right, _|Through my|
 (c2 =B2) c2 | (f4 d2) | e6 | c4 c2 | c4 d2 | (c4 B2) | A6 |] %16
w: Sa- * lem’s|ci- *|ty,|thee in|Sa- lem’s|ci- *|ty.|
w: be _ par-|ta- *|ker,|with them|be par-|ta- *|ker.|
w: Sa- * viour’s|me- *|rit,|through my|Sa- viour’s|me- *|rit.|
V:4
 F,4"^6" E,2 | D,4"^6" A,,2 | (B,,2"^64" C,"^--"D,)"^65" (E,"^--"C,) | F,4 F,2 | C,4"^65" E,2 | %5
w: O my|Je- sus,|God _ _ al- *|migh- ty,|Pray for|
w: Rise, my|soul, a-|dore _ _ thy _|Ma- ker;|An- gels|
w: Fa- ther,|Lord of|ev- * * ’ry _|spi- rit,|In thy|
"^94""^83" F,6 | F,4"^6B" A,2 |"^9V""^83" B,6 |"^§" G,4"^65" =B,2 | (C2"^7§" G,2) A,2 | %10
w: me,|Till I|see|Thee in|Sa- * lem’s|
w: praise,|Join thy|lays,|With them|be _ par-|
w: light,|Lead me|right,|Through my|Sa- * viour’s|
 (F,2"^7" D,2"^§" G,2) | (C,2 C2"^42" B,2) |"^6" (A,2"^43" G,2) F,2 | (C,>B,,"^6" A,,2)"^6" B,,2 | %14
w: ci- * *|ty, _ _|thee _ in|Sa- * * lem’s|
w: ta- * *|ker, _ _|with _ them|be _ _ par-|
w: me- * *|rit, _ _|through _ my|Sa- * * viour’s|
"^64""^73" C,6 | F,6 |] %16
w: ci-|ty.|
w: ta-|ker.|
w: me-|rit.|

